X: 4
T: Haste To The Wedding
R: jig
M: 6/8
L: 1/8
K: Dmaj
A|:"D"AFA Agf|"G"ede fdB|"D"AFA AGF|"A"EFE EFG|
"D"AFA Agf|"G"ede fdB|"A"AFg faf|[1"D"ded d2A:|[2"D"ded d2a|]
|:"D"afa afa|"G"bgb bgb|"D"afa agf|"A"efe efg|
"D"a3 f3|"G"ede fdB|"A"AFg faf|[1"D"ded d2a:|[2"D"ded d3|]


Tune 582	Setting 24454

